!!!COA:	Josquin des Prez
!!!CDT: ~1450-1521/08/27
!!!COM: Verdelot
!!!OTL@@LAT: Sancta Maria virgo virginum
!!!AGN:	Motet
!!!SCT:	NJE 25.7
!!!SCA: New Josquin Edition 25.7
!!!voices: 6
**kern	**kern	**kern	**kern	**kern	**kern
*staff6	*staff5	*staff4	*staff3	*staff2	*staff1
*Ivox	*Ivox	*Ivox	*Ivox	*Ivox	*Ivox
*I"Bassus2	*I"Bassus1	*I"Tenor	*I"Altus2	*I"Altus1	*I"Superius
*I'B2	*I'B1	*I'T	*I'A2	*I'A1	*I'S
*clefF4	*clefF4	*clefGv2	*clefGv2	*clefGv2	*clefG2
*k[b-]	*k[b-]	*k[b-]	*k[b-]	*k[b-]	*k[b-]
*M2/1	*M2/1	*M2/1	*M2/1	*M2/1	*M2/1
*met(C|)	*met(C|)	*met(C|)	*met(C|)	*met(C|)	*met(C|)
=1-	=1-	=1-	=1-	=1-	=1-
0r	0r	0r	0r	0g	1r
.	.	.	.	.	[1dd
=2	=2	=2	=2	=2	=2
0r	0r	0r	0r	1d	1dd]
.	.	.	.	1f	1a
=3	=3	=3	=3	=3	=3
0r	0r	0r	0r	1e	1cc
.	.	.	.	1d	1b-
=4	=4	=4	=4	=4	=4
0r	0r	0d	0r	2r	1a
.	.	.	.	2d\	.
.	.	.	.	1f	2r
.	.	.	.	.	2a/
=5	=5	=5	=5	=5	=5
0r	0r	1A	0r	2.c\	1cc
.	.	.	.	4d\	.
.	.	1c	.	4e\	2.g/
.	.	.	.	4f\	.
.	.	.	.	[2g\	.
.	.	.	.	.	4a/
=6	=6	=6	=6	=6	=6
0r	0r	1B-	0r	4g\]	4b-\
.	.	.	.	4f\	4cc\
.	.	.	.	4e\	2.dd\
.	.	.	.	4d\	.
.	.	1A	.	2e\	.
.	.	.	.	.	4cc#i\
.	.	.	.	2e\	4cc#i\
.	.	.	.	.	8bni\L
.	.	.	.	.	8cc#i\J
=7	=7	=7	=7	=7	=7
0r	0G	2r	1r	1d	0dd
.	.	2G/	.	.	.
.	.	1B-	[1d	2r	.
.	.	.	.	2d\	.
=8	=8	=8	=8	=8	=8
0r	1D	2.F/	1d]	1f	0r
.	.	4G/	.	.	.
.	1F	4A/	1A	2.c\	.
.	.	4B-\	.	.	.
.	.	[2c\	.	.	.
.	.	.	.	4d\	.
=9	=9	=9	=9	=9	=9
0r	1E	4c\]	1c	4e\	0r
.	.	4d\	.	4f\	.
.	.	4e\	.	1g	.
.	.	4c\	.	.	.
.	1D	[1d	1B-	.	.
.	.	.	.	4f\	.
.	.	.	.	4e\	.
=10	=10	=10	=10	=10	=10
0D	2r	2d\]	1A	0f	0r
.	2D\	4c\	.	.	.
.	.	4B-\	.	.	.
.	1F	2A/	2r	.	.
.	.	4F/	2A/	.	.
.	.	4G/	.	.	.
=11	=11	=11	=11	=11	=11
1AA	2.C/	4A/	1c	0r	0r
.	.	4B-\	.	.	.
.	.	1c	.	.	.
.	4D\	.	.	.	.
1C	4E\	.	2.G/	.	.
.	4F\	.	.	.	.
.	[2G\	2C/	.	.	.
.	.	.	4A/	.	.
=12	=12	=12	=12	=12	=12
1BB-	4G\]	4D/	4B-\	0r	0r
.	4F\	4E/	4c\	.	.
.	4E\	4F/	2.d\	.	.
.	4D\	4G/	.	.	.
1AA	2E\	[1A	.	.	.
.	.	.	4c#i\	.	.
.	2E\	.	4c#i\	.	.
.	.	.	8Bni\L	.	.
.	.	.	8c#i\J	.	.
=13	=13	=13	=13	=13	=13
2r	0D	1A]	0d	0r	0r
2D\	.	.	.	.	.
1F	.	2r	.	.	.
.	.	2A/	.	.	.
=14	=14	=14	=14	=14	=14
2.C/	0r	1c	0r	1r	0r
4D\	.	.	.	.	.
4E\	.	2G/	.	2r	.
4F\	.	.	.	.	.
[2G\	.	[2B-\	.	2d\	.
=15	=15	=15	=15	=15	=15
4G\]	0r	4B-\]	0r	2d\	2r
4F\	.	4A/	.	.	.
4E\	.	4G/	.	2d\	2g/
4D\	.	4F/	.	.	.
2E\	.	1G	.	2c\	2g/
2E\	.	.	.	2c\	2g/
=16	=16	=16	=16	=16	=16
1D	0r	1A	0r	2d\	2f/
.	.	.	.	2f\	2f/
1r	.	1r	.	2e\	2g/
.	.	.	.	[2d\	2a/
=17	=17	=17	=17	=17	=17
0r	0r	0r	1d	4d\]	2f/
.	.	.	.	4c\	.
.	.	.	.	4B-\	2.g/
.	.	.	.	4A/	.
.	.	.	2d\	1B-	.
.	.	.	.	.	4f/
.	.	.	2d\	.	4e/
.	.	.	.	.	4d/
=18	=18	=18	=18	=18	=18
0r	0r	0r	2c\	1A	2e/
.	.	.	2c\	.	2.a/
.	.	.	2d\	2r	.
.	.	.	.	.	4g/
.	.	.	2f\	2d\	4a/
.	.	.	.	.	4f/
=19	=19	=19	=19	=19	=19
0r	1r	0r	2e\	2e\	4g/
.	.	.	.	.	4a/
.	.	.	2.d\	2f\	2.b-\
.	1G	.	.	1g	.
.	.	.	4c\	.	4a/
.	.	.	4B-\	.	4g/
.	.	.	4A/	.	4f/
=20	=20	=20	=20	=20	=20
0r	2G\	1d	1B-	0r	4g/
.	.	.	.	.	4a/
.	2G\	.	.	.	4b-\
.	.	.	.	.	4g/
.	2F\	2d\	2A/	.	2a/
.	2G\	2d\	2B-\	.	4g/
.	.	.	.	.	4f/
=21	=21	=21	=21	=21	=21
0r	1A	2c\	2c\	0r	1e
.	.	2c\	1A	.	.
.	2F\	2.d\	.	.	1d
.	[2G\	.	[2d\	.	.
.	.	4c\	.	.	.
=22	=22	=22	=22	=22	=22
1G	4G\]	4B-\	2d\]	0r	0r
.	4F\	4A/	.	.	.
.	4E\	4G/	4c\	.	.
.	4D\	4F/	4B-\	.	.
2G\	2E\	1G	1c	.	.
2G\	2E\	.	.	.	.
=23	=23	=23	=23	=23	=23
2F\	1D	1A	1d	0r	0r
2F\	.	.	.	.	.
2G\	1r	2B-\	2e\	.	.
2A\	.	2c\	[2f\	.	.
=24	=24	=24	=24	=24	=24
2F\	0r	2A/	4f\]	1r	0r
.	.	.	4e\	.	.
2.G\	.	2.B-\	1d	.	.
.	.	.	.	[1g	.
4F\	.	4A/	.	.	.
4E\	.	4G/	4c#i\	.	.
4D\	.	4F/	4Bni\	.	.
=25	=25	=25	=25	=25	=25
1E	1r	1G	1c#i	1g]	1r
1D	2r	1A	[1d	[1f	[1dd
.	2D\	.	.	.	.
=26	=26	=26	=26	=26	=26
1BB-	2F\	1B-	1d]	2f\]	1dd]
.	2G\	.	.	4e\	.
.	.	.	.	4d\	.
2.C/	2.E\	1G	1r	1e	1cc
4BB-/	4F\	.	.	.	.
=27	=27	=27	=27	=27	=27
4GG/	1G	0r	1r	1d	1b-
4AA/	.	.	.	.	.
4BB-/	.	.	.	.	.
4C/	.	.	.	.	.
1D	1F	.	[1d	2.f\	2.a/
.	.	.	.	4e\	4g/
=28	=28	=28	=28	=28	=28
0r	0r	0r	2d\]	4d\	2f/
.	.	.	.	4c\	.
.	.	.	2c\	2.e\	2.g/
.	.	.	1B-	.	.
.	.	.	.	4d\	4f/
.	.	.	.	[2d\	4e/
.	.	.	.	.	4d/
=29	=29	=29	=29	=29	=29
1r	1r	2r	1A	2d\]	2e/
.	.	2A/	.	2c#i\	2e/
2r	[1G	2B-\	1r	1d	1d
[2GG/	.	2G/	.	.	.
=30	=30	=30	=30	=30	=30
4GG/]	1G]	1B-	0d	0r	0r
4AA/	.	.	.	.	.
4BB-/	.	.	.	.	.
4C/	.	.	.	.	.
2D\	1F	2A/	.	.	.
2BB-/	.	2B-\	.	.	.
=31	=31	=31	=31	=31	=31
1C	1E	1G	1c	0g	0r
4GG/	1D	[1d	1B-	.	.
4AA/	.	.	.	.	.
4BB-/	.	.	.	.	.
4C/	.	.	.	.	.
=32	=32	=32	=32	=32	=32
2D\	2r	1d]	2A/	1f	0r
2BB-/	2D\	.	2B-\	.	.
1C	1E	1c	2.G/	1e	.
.	.	.	4A/	.	.
=33	=33	=33	=33	=33	=33
1GG	1G	1B-	4B-\	1d	0r
.	.	.	4c\	.	.
.	.	.	1d	.	.
[1D	[1F	2.A/	.	2f\	.
.	.	.	4c\	2e\	.
.	.	4G/	4B-\	.	.
=34	=34	=34	=34	=34	=34
2D\]	2F\]	2F/	2A/	4d\	0r
.	.	.	.	4c\	.
2C/	2E\	2.G/	2c\	2.e\	.
1BB-	2F\	.	2d\	.	.
.	.	4F/	.	4d\	.
.	2G\	4E/	2B-\	[2d\	.
.	.	4D/	.	.	.
=35	=35	=35	=35	=35	=35
1AA	1.A	2E/	4c\	2d\]	1r
.	.	.	4B-\	.	.
.	.	2E/	4A/	2c#i\	.
.	.	.	4G/	.	.
1D	.	1D	2F/	1d	2r
.	2F\	.	2A/	.	[2d/
=36	=36	=36	=36	=36	=36
0r	2G\	0r	2B-\	1r	2d/]
.	2E\	.	2c\	.	1g
.	1D	.	1A	2r	.
.	.	.	.	[2d\	2f/
=37	=37	=37	=37	=37	=37
1r	1GG	0r	2r	2d\]	1b-
.	.	.	2G/	1g	.
2r	1r	.	[1d	.	1a
[2D\	.	.	.	2f\	.
=38	=38	=38	=38	=38	=38
2D\]	1r	0r	2d\]	1b-	2r
1G	.	.	2B-\	.	2d/
.	2r	.	2c\	1a	2e/
2F\	[2D\	.	[2d\	.	[2f/
=39	=39	=39	=39	=39	=39
1B-	2D\]	1r	2d\]	2f\	2f/]
.	1G	.	2B-\	2g\	2d/
1A	.	2r	2c\	1a	2e/
.	2F\	[2D/	[2d\	.	[2f/
=40	=40	=40	=40	=40	=40
1r	1B-	2D/]	2d\]	2f\	2f/]
.	.	1d	2G/	2g\	4e/
.	.	.	.	.	4d/
1AA	2.A\	.	2.c\	1a	1e
.	.	2c\	.	.	.
.	4G\	.	4B-\	.	.
=41	=41	=41	=41	=41	=41
1.D	0F	1f	1A	2r	4d/
.	.	.	.	.	4e/
.	.	.	.	2d\	4f/
.	.	.	.	.	4g/
.	.	1d	1r	2f\	2a/
2BB-/	.	.	.	2f\	[2b-\
=42	=42	=42	=42	=42	=42
1E-i	1r	2B-\	0r	1g	2b-\]
.	.	2c\	.	.	4a/
.	.	.	.	.	4g/
1D	1F	[1d	.	2f\	2b-\
.	.	.	.	[2f\	[2a/
=43	=43	=43	=43	=43	=43
2BB-/	2D\	2d\]	0r	2f\]	4a/]
.	.	.	.	.	4g/
2C/	2E\	4c\	.	2e\	1g
.	.	4B-\	.	.	.
1D	2.F\	2A/	.	2.d\	.
.	.	[2B-\	.	.	2f#i/
.	4E\	.	.	4c\	.
=44	=44	=44	=44	=44	=44
1GG	2D\	4B-\]	1d	1B-	1g
.	.	4A/	.	.	.
.	2BB-/	1G	.	.	.
1r	2C/	.	2c\	1r	1r
.	2D\	2F#i/	2A/	.	.
=45	=45	=45	=45	=45	=45
2r	1GG	1G	1B-	0r	0r
2G\	.	.	.	.	.
2F\	1D	1r	2A/	.	.
2D\	.	.	[2B-\	.	.
=46	=46	=46	=46	=46	=46
1E	2r	1r	2B-\]	0r	0r
.	2G\	.	4A/	.	.
.	.	.	4G/	.	.
2.D\	2F\	2r	2B-\	.	.
.	2D\	2d\	[2A/	.	.
4C/	.	.	.	.	.
=47	=47	=47	=47	=47	=47
2AA/	1E	2c\	4A/]	0r	1r
.	.	.	4G/	.	.
2C/	.	2A/	2E/	.	.
2BB-/	1D	1B-	2F/	.	2r
2GG/	.	.	[2G/	.	2dd\
=48	=48	=48	=48	=48	=48
1AA	0r	1A	2G/]	1r	2cc\
.	.	.	2F#i/	.	2a/
1GG	.	1d	1G	2r	1b-
.	.	.	.	2g\	.
=49	=49	=49	=49	=49	=49
0r	0r	2D/	1r	2f\	2a/
.	.	2.d\	.	2d\	1b-
.	.	.	1g	1e	.
.	.	4B-\	.	.	.
.	.	2c\	.	.	4a/
.	.	.	.	.	4g/
=50	=50	=50	=50	=50	=50
0r	2r	1d	2f\	2.d\	2b-\
.	1D	.	2d\	.	2.a/
.	.	.	.	4c\	.
.	.	1r	1e	2A/	.
.	.	.	.	.	4g/
.	2C/	.	.	2c\	2e/
=51	=51	=51	=51	=51	=51
0r	2D\	1r	2d\	2B-\	2f/
.	2E\	.	2c\	2G/	1g
.	1D	2r	2d\	1A	.
.	.	2A/	2d\	.	2f#i/
=52	=52	=52	=52	=52	=52
1r	0GG	1B-	0d	0G	0g
1D	.	1B-	.	.	.
=53	=53	=53	=53	=53	=53
1F	0r	1A	2r	1r	0r
.	.	.	2A/	.	.
1E	.	2r	1c	1e	.
.	.	2G/	.	.	.
=54	=54	=54	=54	=54	=54
1D	0r	1.d	1B-	1f	1r
1D	.	.	1A	1f	1a
.	.	2c\	.	.	.
=55	=55	=55	=55	=55	=55
1.G	0r	2.B-\	2r	1d	1b-
.	.	.	2G/	.	.
.	.	4c\	.	.	.
.	.	2d\	2B-\	1r	1b-
2G\	.	[2e\	2G/	.	.
=56	=56	=56	=56	=56	=56
1F	0r	4e\]	2A/	1r	1a
.	.	4d\	.	.	.
.	.	1d	2F/	.	.
1E	.	.	1G	1e	1r
.	.	2c#i\	.	.	.
=57	=57	=57	=57	=57	=57
0D	2r	0d	0A	1f	1r
.	2D\	.	.	.	.
.	1F	.	.	1f	1a
=58	=58	=58	=58	=58	=58
0r	1G	1r	2r	1d	1b-
.	.	.	2d\	.	.
.	1D	1A	1f	2r	1a
.	.	.	.	2d\	.
=59	=59	=59	=59	=59	=59
0r	2r	1c	1e	2e\	1g
.	2C/	.	.	2.g\	.
.	2G\	1B-	1d	.	2r
.	.	.	.	4f\	.
.	2G\	.	.	4d\	2g/
.	.	.	.	4e\	.
=60	=60	=60	=60	=60	=60
0r	1F	1A	0r	2f\	2a/
.	.	.	.	2d\	2f/
.	1E	2r	.	2e\	2.g/
.	.	2G/	.	2g\	.
.	.	.	.	.	4a/
=61	=61	=61	=61	=61	=61
0r	1D	1.d	2r	1f	2b-\
.	.	.	2A/	.	2.a/
.	2r	.	[1f	1r	.
.	.	.	.	.	4f/
.	2BB-/	2d\	.	.	[2b-\
=62	=62	=62	=62	=62	=62
0r	2.F\	1c	2f\]	0r	4b-\]
.	.	.	.	.	4a/
.	.	.	2f\	.	1a
.	4F\	.	.	.	.
.	2G\	1B-	2d\	.	.
.	2G\	.	2e\	.	2g/
=63	=63	=63	=63	=63	=63
[0D	1F	0A	1f	1r	0a
.	1r	.	[1d	[1f	.
=64	=64	=64	=64	=64	=64
1D]	1.F	0r	1d]	2f\]	1r
.	.	.	.	2f\	.
1D	.	.	1d	1f	[1a
.	2F\	.	.	.	.
=65	=65	=65	=65	=65	=65
0D	1F	1r	1A	1d	1a]
.	1D	1F	1A	1d	1a
=66	=66	=66	=66	=66	=66
1GG	1D	1G	1d	1.g	1g
1GG	[1G	1B-	1d	.	1g
.	.	.	.	2f\	.
=67	=67	=67	=67	=67	=67
1.C	2G\]	1G	1.c	[0e	1.cc
.	2F\	.	.	.	.
.	1E	1G	.	.	.
2BB-/	.	.	2B-\	.	2b-\
=68	=68	=68	=68	=68	=68
0AA	1r	1.A	[0c	0e]	[0a
.	1E	.	.	.	.
.	.	2A/	.	.	.
=69	=69	=69	=69	=69	=69
1r	1F	1A	0c]	0r	0a]
1AA	1E	2r	.	.	.
.	.	2A/	.	.	.
=70	=70	=70	=70	=70	=70
1.D	2.F\	2.B-\	0r	0r	0r
.	4E\	4A/	.	.	.
.	2F\	2B-\	.	.	.
2C/	[2E\	[2A/	.	.	.
=71	=71	=71	=71	=71	=71
1BB-	4E\]	4A/]	1r	1r	1r
.	4D\	4G/	.	.	.
.	1D	1G	.	.	.
1AA	.	.	1A	1c	1a
.	2C/	2F#i/	.	.	.
=72	=72	=72	=72	=72	=72
1GG	1D	1G	1.d	2.B-\	2.b-\
.	.	.	.	4c\	4a/
1r	1r	1r	.	2d\	2b-\
.	.	.	2c\	2e-i\	[2a/
=73	=73	=73	=73	=73	=73
0r	1r	0r	1B-	0d	4a/]
.	.	.	.	.	4g/
.	.	.	.	.	1g
.	1D	.	1A	.	.
.	.	.	.	.	2f#i/
=74	=74	=74	=74	=74	=74
1r	1G	0r	2G/	2r	2.g/
.	.	.	2G/	2d\	.
.	.	.	.	.	8f/L
.	.	.	.	.	8e/J
1GG	1G	.	1B-	1g	1d
=75	=75	=75	=75	=75	=75
1C	1E	1G	1c	1g	1e
1C	1E	1c	2G/	1e	2r
.	.	.	2G/	.	2g/
=76	=76	=76	=76	=76	=76
1AA	1A	1c	4A/	1e	1cc
.	.	.	4G/	.	.
.	.	.	4A/	.	.
.	.	.	4B-\	.	.
1AA	1A	1A	4c\	[1a	1cc
.	.	.	4d\	.	.
.	.	.	4e\	.	.
.	.	.	4c\	.	.
=77	=77	=77	=77	=77	=77
1D	0F	1A	2.d\	1a]	1a
.	.	.	8c\L	.	.
.	.	.	8B-\J	.	.
1D	.	[1d	1A	1f	1a
=78	=78	=78	=78	=78	=78
1BB-	0D	1d]	2.B-\	1f	0dd
.	.	.	8A/L	.	.
.	.	.	8G/J	.	.
1BB-	.	1B-	1F	1d	.
=79	=79	=79	=79	=79	=79
1GG	0G	1B-	1G	1d	1b-
1GG	.	1G	1d	[1g	1b-
=80	=80	=80	=80	=80	=80
0C	0E	1G	2e\	1g]	1g
.	.	.	1c	.	.
.	.	1c	.	1e	1g
.	.	.	4B-\	.	.
.	.	.	4A/	.	.
=81	=81	=81	=81	=81	=81
0C	1E	1c	1.G	[0g	1cc
.	1E	1c	.	.	1cc
.	.	.	2A/	.	.
=82	=82	=82	=82	=82	=82
2.GG/	[0D	2.d\	2.B-\	1g]	1b-
4AA/	.	4c\	4c\	.	.
2.BB-/	.	2.B-\	4d\	[1f	1b-
.	.	.	4e-i\	.	.
.	.	.	[2d\	.	.
4C/	.	8A/L	.	.	.
.	.	8G/J	.	.	.
=83	=83	=83	=83	=83	=83
1D	0D]	1F	4d\]	1f]	1a
.	.	.	4c\	.	.
.	.	.	2A/	.	.
1GG	.	1G	1B-	1d	[1g
=84	=84	=84	=84	=84	=84
0D	1r	0A	2A/	0d	2g/]
.	.	.	2.d\	.	4f#i/
.	.	.	.	.	4e/
.	1D	.	.	.	1f#i
.	.	.	4c\	.	.
.	.	.	2A/	.	.
=85	=85	=85	=85	=85	=85
1r	1G	1G	2B-\	2r	2.g/
.	.	.	2G/	2d\	.
.	.	.	.	.	8f/L
.	.	.	.	.	8e/J
1GG	1G	1r	1B-	1g	1d
=86	=86	=86	=86	=86	=86
1C	1E	1G	1c	1g	1e
1C	1E	1c	2G/	1e	2r
.	.	.	2G/	.	2g/
=87	=87	=87	=87	=87	=87
1AA	1A	1c	4A/	1e	1cc
.	.	.	4G/	.	.
.	.	.	4A/	.	.
.	.	.	4B-\	.	.
1AA	1A	1A	4c\	[1a	1cc
.	.	.	4d\	.	.
.	.	.	4e\	.	.
.	.	.	4c\	.	.
=88	=88	=88	=88	=88	=88
1D	1F	1A	2.d\	1a]	1a
.	.	.	8c\L	.	.
.	.	.	8B-\J	.	.
1D	1F	[1d	1A	1f	1a
=89	=89	=89	=89	=89	=89
1BB-	1D	1d]	2.B-\	1f	0dd
.	.	.	8A/L	.	.
.	.	.	8G/J	.	.
1BB-	1D	1B-	1F	1d	.
=90	=90	=90	=90	=90	=90
1GG	0G	1B-	1G	1e	1b-
1GG	.	[1G	1d	[1g	1b-
=91	=91	=91	=91	=91	=91
0C	[0E	1G]	2e\	1g]	1g
.	.	.	1c	.	.
.	.	[1c	.	1e	1g
.	.	.	4B-\	.	.
.	.	.	4A/	.	.
=92	=92	=92	=92	=92	=92
0C	0E]	1c]	1.G	[0g	1cc
.	.	1c	.	.	1cc
.	.	.	2A/	.	.
=93	=93	=93	=93	=93	=93
2.GG/	[0D	2.d\	2.B-\	1g]	1b-
4AA/	.	4c\	4c\	.	.
2.BB-/	.	2.B-\	4d\	[1f	1b-
.	.	.	4e-i\	.	.
.	.	.	[2d\	.	.
4C/	.	8A/L	.	.	.
.	.	8G/J	.	.	.
=94	=94	=94	=94	=94	=94
1D	0D]	1F	4d\]	1f]	1a
.	.	.	4c\	.	.
.	.	.	2A/	.	.
1GG	.	1G	1B-	1d	[1g
=95	=95	=95	=95	=95	=95
0D	1r	0A	2A/	[0d	2g/]
.	.	.	2.d\	.	4f#i/
.	.	.	.	.	4e/
.	[1D	.	.	.	1f#i
.	.	.	4c\	.	.
.	.	.	2A/	.	.
=96	=96	=96	=96	=96	=96
1GG	1D]	[0Gl	1B-	1d]	[0gl
[1C	1E	.	2G/	1c	.
.	.	.	[2c\	.	.
=97	=97	=97	=97	=97	=97
1C]	1C	0G_	4c\]	1e	0g_
.	.	.	4B-\	.	.
.	.	.	4G/	.	.
.	.	.	4A/	.	.
1BB-	1D	.	1B-	1d	.
=98	=98	=98	=98	=98	=98
0C	1E	0G_	2G/	2.c\	0g_
.	.	.	1c	.	.
.	.	.	.	4d\	.
.	1C	.	.	1e	.
.	.	.	4B-\	.	.
.	.	.	4A/	.	.
=99	=99	=99	=99	=99	=99
0GGl	0Dl	0G]	0B-l	0dl	0g]
==	==	==	==	==	==
*-	*-	*-	*-	*-	*-
!!!RDF**kern: l=long note in original notation
!!!RDF**kern: i=editorial accidental
!!!ENC: Will Watson 23/05/2011
!!!END: 2011/05/23/
!!!EED: Jesse Rodin
!!!EEV: 2011/11/03/
!!attribution-level@Jos: 6 (very doubtful)
!!!ONB: Translated from MusicXML and edited on 2011/11/03/ by Craig Sapp
!!muse2ps:  C^@{COM}{/}@{COA}?\n@{SCT}^v90,90,90,90,90,130i2I150Q16
